X:917
T:Reel 917
M:4/4
K:Gmaj
L:1/8
BA|G2BG AcBA|GEDG EGAF|G2GA BcBa|gedB c2BA|G2BG AcBA|G2BG AGEF|GEGE cABc|dBAB G2| (3def |g2ge fgaf|g2ge agef|g2gf g2ag|egaa agef|g2gf g2de|gaag egge|dBBG AcBc|AGEF G2|
